Catalina-light/actions/16/kt-remove-filters.svg

<svg width="16" height="16" viewBox="0 0 16 16" xmlns="http://www.w3.org/2000/svg">
<defs>
<style id="current-color-scheme" type="text/css">.ColorScheme-Text { color:#5c616c; } .ColorScheme-Highlight { color:#5294e2; }</style>
</defs>
<path class="ColorScheme-Text" d="m0 2 4 4 0.019531 4 0.96875 4 1.0117-4v-4l4-4h-10zm8 6v2h6v-2h-6z" fill="currentColor"/>
</svg>

<svg xmlns="http://www.w3.org/2000/svg" width="16" height="16" viewBox="0 0 16 16">
 <defs>
  <style id="current-color-scheme" type="text/css">
   .ColorScheme-Text { color:#5c616c; } .ColorScheme-Highlight { color:#5294e2; }
  </style>
 </defs>
 <path style="fill:currentColor" class="ColorScheme-Text" d="M 0 2 L 4 6 L 4.0195312 10 L 4.9882812 14 L 6 10 L 6 6 L 10 2 L 0 2 z M 8 8 L 8 10 L 14 10 L 14 8 L 8 8 z"/>
</svg>
